client/src/assets/images/icon-nutrition-active.svg

<svg viewBox="0 0 48.98 53" xmlns="http://www.w3.org/2000/svg"><g fill="#fff"><path d="m10.38 12.25a6.13 6.13 0 1 1 6.12-6.12 6.13 6.13 0 0 1 -6.12 6.12zm0-10.75a4.63 4.63 0 1 0 4.62 4.63 4.63 4.63 0 0 0 -4.62-4.63z"/><path d="m38 22.75a4.5 4.5 0 1 1 4.5-4.5 4.51 4.51 0 0 1 -4.5 4.5zm0-7.5a3 3 0 1 0 3 3 3 3 0 0 0 -3-3z"/><path d="m43.25 39.25h-15v-1.5h14.41l4.86-19.43 1.46.36-5 20a.75.75 0 0 1 -.73.57z"/><path d="m32.5 40h1.5v13h-1.5z"/><path d="m40.5 40h1.5v13h-1.5z"/><path d="m40.25 36.75h-11a2.25 2.25 0 0 1 0-4.5h5.25v-5a4 4 0 0 1 8 0v7.25a2.25 2.25 0 0 1 -2.25 2.25zm-11-3a.75.75 0 0 0 0 1.5h11a.75.75 0 0 0 .75-.75v-7.25a2.5 2.5 0 0 0 -5 0v5.75a.75.75 0 0 1 -.75.75z"/><path d="m36.5 36h-1.5v-3a.75.75 0 0 1 .51-.71l6-2 .49 1.42-5.5 1.83z"/><path d="m10.25 52.75h-9.5a.75.75 0 0 1 -.75-.75v-34.25a5.51 5.51 0 0 1 5.5-5.5 6.59 6.59 0 0 1 4 1.09l8.2 6.41h5a3.25 3.25 0 0 1 0 6.5h-6-.2a3.51 3.51 0 0 1 -.41 0h-.17a3.45 3.45 0 0 1 -.46-.14l-.12-.06a3.13 3.13 0 0 1 -.38-.19l-6.67-5.27.91-1.19 6.66 5.12h.08l.14.07.22.07h.12.21 6.11a1.75 1.75 0 0 0 0-3.5h-5.27a.75.75 0 0 1 -.46-.16l-8.38-6.46a5.17 5.17 0 0 0 -3.13-.79 4 4 0 0 0 -4 4v33.5h8v-26.65h1.5v27.4a.75.75 0 0 1 -.75.75z"/><path d="m5 33h1.5v19h-1.5z"/><path d="m32.57 20.92a2.55 2.55 0 0 1 -5 .82z"/><path d="m25.05 23.44 3.96-.65-.21-1.25-3.77.61"/></g></svg>

<?xml version="1.0"?>
<svg xmlns="http://www.w3.org/2000/svg" viewBox="0 0 48.98 53">
  <defs>
    <style>.cls-1{fill:#fff;}</style>
  </defs>
  <title>icon-nutrition-active</title>
  <g id="Layer_2" data-name="Layer 2">
    <g id="Screens">
      <path class="cls-1" d="M10.38,12.25A6.13,6.13,0,1,1,16.5,6.13,6.13,6.13,0,0,1,10.38,12.25Zm0-10.75A4.63,4.63,0,1,0,15,6.13,4.63,4.63,0,0,0,10.38,1.5Z"/>
      <path class="cls-1" d="M38,22.75a4.5,4.5,0,1,1,4.5-4.5A4.51,4.51,0,0,1,38,22.75Zm0-7.5a3,3,0,1,0,3,3A3,3,0,0,0,38,15.25Z"/>
      <path class="cls-1" d="M43.25,39.25h-15v-1.5H42.66l4.86-19.43,1.46.36-5,20A.75.75,0,0,1,43.25,39.25Z"/>
      <rect class="cls-1" x="32.5" y="40" width="1.5" height="13"/>
      <rect class="cls-1" x="40.5" y="40" width="1.5" height="13"/>
      <path class="cls-1" d="M40.25,36.75h-11a2.25,2.25,0,0,1,0-4.5H34.5v-5a4,4,0,0,1,8,0V34.5A2.25,2.25,0,0,1,40.25,36.75Zm-11-3a.75.75,0,0,0,0,1.5h11A.75.75,0,0,0,41,34.5V27.25a2.5,2.5,0,0,0-5,0V33a.75.75,0,0,1-.75.75Z"/>
      <path class="cls-1" d="M36.5,36H35V33a.75.75,0,0,1,.51-.71l6-2L42,31.71,36.5,33.54Z"/>
      <path class="cls-1" d="M10.25,52.75H.75A.75.75,0,0,1,0,52V17.75a5.51,5.51,0,0,1,5.5-5.5,6.59,6.59,0,0,1,4,1.09l8.2,6.41h5a3.25,3.25,0,0,1,0,6.5h-6l-.2,0a3.51,3.51,0,0,1-.41,0l-.17,0a3.45,3.45,0,0,1-.46-.14l-.12-.06a3.13,3.13,0,0,1-.38-.19L8.29,20.59l.91-1.19,6.66,5.12.08,0,.14.07.22.07.12,0,.21,0h6.11a1.75,1.75,0,0,0,0-3.5H17.47a.75.75,0,0,1-.46-.16L8.63,14.54a5.17,5.17,0,0,0-3.13-.79,4,4,0,0,0-4,4v33.5h8V24.6H11V52A.75.75,0,0,1,10.25,52.75Z"/>
      <rect class="cls-1" x="5" y="33" width="1.5" height="19"/>
      <path class="cls-1" d="M32.57,20.92a2.55,2.55,0,0,1-5,.82Z"/>
      <polyline class="cls-1" points="25.05 23.44 29.01 22.79 28.8 21.54 25.03 22.15"/>
    </g>
  </g>
</svg>
